icons/editor-cursor-4-filled.svg

<svg width="25" height="25" viewBox="0 0 25 25" fill="none" xmlns="http://www.w3.org/2000/svg">
<g id="cursor-04">
<path id="Icon" d="M6.22407 15.0993L4.53691 16.7864M4.36062 10.5998H1.97461M4.53691 4.41435L6.22407 6.10145M10.7237 1.85156L10.7237 4.23747M16.9094 4.41435L15.2223 6.10145M22.575 20.3174L20.7129 22.1795C20.5073 22.3851 20.1738 22.3851 19.9681 22.1795L17.0325 19.2438C16.8105 19.0219 16.4449 19.0421 16.2488 19.2872L14.2745 21.7552C14.0073 22.0892 13.4744 21.9822 13.3568 21.5708L10.1735 10.429C10.0599 10.0317 10.4273 9.66442 10.8245 9.77793L21.9664 12.9613C22.3777 13.0788 22.4847 13.6117 22.1507 13.879L19.6828 15.8533C19.4377 16.0494 19.4174 16.415 19.6394 16.637L22.575 19.5726C22.7807 19.7783 22.7807 20.1117 22.575 20.3174Z" stroke="black" stroke-width="2" stroke-linecap="round" stroke-linejoin="round"/>
</g>
</svg>

<svg xmlns="http://www.w3.org/2000/svg" width="25" height="25" fill="none" viewBox="0 0 25 25"><path stroke="currentColor" stroke-linecap="round" stroke-linejoin="round" stroke-width="2" d="m6.224 15.1-1.687 1.686M4.36 10.6H1.975m2.562-6.186 1.687 1.687m4.5-4.25v2.386m6.185.177-1.687 1.687m7.353 14.216-1.862 1.863a.527.527 0 0 1-.745 0l-2.936-2.936a.527.527 0 0 0-.783.043l-1.974 2.468a.527.527 0 0 1-.918-.184l-3.183-11.142a.527.527 0 0 1 .65-.651l11.142 3.183c.412.118.519.65.185.918l-2.468 1.974a.527.527 0 0 0-.044.784l2.936 2.936a.527.527 0 0 1 0 .744"/></svg>
